assets/img/svg/logo.svg

<?xml version="1.0" encoding="UTF-8"?>
<svg viewBox="0 0 194 194" xmlns="http://www.w3.org/2000/svg">
<path d="m97 194c53.572 0 97-43.428 97-97 0-53.572-43.428-97-97-97-53.572 0-97 43.428-97 97 0 53.572 43.428 97 97 97z" fill="#fff"/>
<path d="m46.225 81.158v-10.932c0-2.6331-1.1702-3.9838-3.2523-3.9838s-3.3645 1.3507-3.3645 3.9838v10.932h-5.5588v-10.932c0-2.6331-1.1702-3.9838-3.2523-3.9838s-3.3645 1.3507-3.3645 3.9838v10.932h-5.5588v-19.592h5.5588v2.7793c1.2775-1.6432 2.9598-3.145 5.7733-3.145 2.5599 0 4.4957 1.1312 5.5197 3.106 1.7164-2.0089 3.7643-3.106 6.4316-3.106 4.13 0 6.6168 2.4868 6.6168 7.2019v12.756h-5.549z" fill="#181818"/>
<path d="m65.344 81.158v-2.1211c-1.3507 1.497-3.2182 2.4868-5.9196 2.4868-3.6912 0-6.7241-2.1211-6.7241-5.9927v-0.0731c0-4.2764 3.2524-6.2512 7.8944-6.2512 1.9748 0 3.3986 0.3267 4.7883 0.8046v-0.3267c0-2.3015-1.4238-3.5839-4.2032-3.5839-2.1211 0-3.618 0.3998-5.4076 1.0581l-1.3896-4.2422c2.1552-0.9509 4.2763-1.5701 7.6018-1.5701 6.0658 0 8.7379 3.145 8.7379 8.4454v11.366h-5.3783zm0.1073-7.8992c-0.9509-0.4389-2.1943-0.7315-3.5449-0.7315-2.3747 0-3.8375 0.9509-3.8375 2.7063v0.0731c0 1.497 1.2434 2.3747 3.0329 2.3747 2.5941 0 4.3495-1.4239 4.3495-3.4377v-0.9849z" fill="#181818"/>
<path d="m84.278 67.007c-3.6912 0-5.9586 2.2284-5.9586 6.9094v7.2361h-5.5587v-19.592h5.5587v3.9496c1.1313-2.7062 2.9598-4.4616 6.2512-4.3153v5.8123h-0.2926z" fill="#181818"/>
<path d="m97.912 81.158-5.1199-8.0066-1.9358 2.048v5.9586h-5.5588v-26.687h5.5588v14.219l6.5047-7.1288h6.6511l-7.4557 7.714 7.7137 11.878h-6.3581v0.0049z" fill="#181818"/>
<path d="m121.49 73.297h-13.634c0.546 2.521 2.302 3.8375 4.788 3.8375 1.863 0 3.219-0.5851 4.755-2.0089l3.179 2.8135c-1.829 2.2674-4.462 3.657-8.007 3.657-5.885 0-10.235-4.13-10.235-10.128v-0.0731c0-5.5929 3.984-10.201 9.689-10.201 6.544 0 9.543 5.0809 9.543 10.64v0.0732c-5e-3 0.5509-0.044 0.8776-0.078 1.3896zm-9.47-7.6408c-2.301 0-3.803 1.6432-4.242 4.1691h8.372c-0.326-2.4868-1.789-4.1691-4.13-4.1691z" fill="#181818"/>
<path d="m129.57 81.484c-3.398 0-5.705-1.3507-5.705-5.8854v-9.2841h-2.34v-4.7542h2.34v-5.0077h5.559v5.0077h4.608v4.7542h-4.608v8.3722c0 1.2776 0.546 1.9017 1.79 1.9017 1.024 0 1.935-0.2535 2.74-0.6924v4.4616c-1.165 0.6876-2.516 1.1264-4.384 1.1264z" fill="#181818"/>
<path d="m21.991 88.662v-4.9346h5.8465v4.9346h-5.8465zm0.1463 21.752v-19.592h5.5588v19.592h-5.5588z" fill="#181818"/>
<path d="m42.568 110.41v-10.932c0-2.6331-1.2434-3.9837-3.3645-3.9837s-3.4717 1.3506-3.4717 3.9837v10.932h-5.5588v-19.592h5.5588v2.7794c1.2775-1.6433 2.9256-3.1451 5.7391-3.1451 4.2032 0 6.651 2.7793 6.651 7.2751v12.683h-5.5539z" fill="#181818"/>
<path d="m58.654 88.15c-1.2776 0-2.009 0.6583-2.009 2.1211v0.7655h4.4958v4.5348h-4.4227v14.843h-5.5587v-14.843h-2.3015v-4.5689h2.3015v-1.2434c0-4.3153 2.1552-6.2853 6.0659-6.2853 1.7554 0 2.9256 0.2195 3.9496 0.5462v4.6079c-0.8046-0.2926-1.5701-0.4779-2.5209-0.4779z" fill="#181818"/>
<path d="m61.687 110.41v-26.687h5.5587v26.687h-5.5587z" fill="#181818"/>
<path d="m81.972 110.41v-2.779c-1.2775 1.643-2.9256 3.145-5.7391 3.145-4.2032 0-6.651-2.78-6.651-7.275v-12.683h5.5587v10.932c0 2.633 1.2434 3.984 3.3645 3.984s3.4718-1.351 3.4718-3.984v-10.932h5.5587v19.592h-5.5636z" fill="#181818"/>
<path d="m107.96 102.55h-13.633c0.5461 2.521 2.3015 3.837 4.7883 3.837 1.8628 0 3.2178-0.585 4.7538-2.009l3.18 2.814c-1.829 2.267-4.462 3.657-8.0069 3.657-5.8855 0-10.235-4.13-10.235-10.128v-0.073c0-5.5927 3.9837-10.201 9.6888-10.201 6.544 0 9.542 5.0808 9.542 10.64v0.073c-4e-3 0.551-0.039 0.878-0.078 1.39zm-9.464-7.641c-2.3016 0-3.8034 1.6432-4.2422 4.169h8.3722c-0.332-2.4868-1.79-4.169-4.13-4.169z" fill="#181818"/>
<path d="m121.82 110.41v-10.932c0-2.6331-1.243-3.9837-3.364-3.9837s-3.472 1.3506-3.472 3.9837v10.932h-5.554v-19.592h5.554v2.7794c1.278-1.6433 2.926-3.1451 5.739-3.1451 4.203 0 6.651 2.7793 6.651 7.2751v12.683h-5.554z" fill="#181818"/>
<path d="m138.7 110.85c-5.885 0-10.201-4.535-10.201-10.128v-0.073c0-5.5927 4.277-10.201 10.274-10.201 3.691 0 5.993 1.2434 7.821 3.2913l-3.398 3.6571c-1.244-1.3166-2.487-2.1553-4.462-2.1553-2.779 0-4.754 2.4478-4.754 5.3345v0.073c0 2.999 1.936 5.413 4.974 5.413 1.862 0 3.145-0.805 4.495-2.083l3.253 3.292c-1.897 2.077-4.091 3.579-8.002 3.579z" fill="#181818"/>
<path d="m165.25 102.55h-13.634c0.546 2.521 2.302 3.837 4.788 3.837 1.863 0 3.219-0.585 4.755-2.009l3.179 2.814c-1.829 2.267-4.462 3.657-8.007 3.657-5.885 0-10.235-4.13-10.235-10.128v-0.073c0-5.5927 3.984-10.201 9.689-10.201 6.544 0 9.543 5.0808 9.543 10.64v0.073c-5e-3 0.551-0.044 0.878-0.078 1.39zm-9.47-7.641c-2.301 0-3.803 1.6432-4.242 4.169h8.372c-0.326-2.4868-1.789-4.169-4.13-4.169z" fill="#181818"/>
<path d="m178.22 96.264c-3.691 0-5.959 2.2283-5.959 6.9093v7.236h-5.554v-19.592h5.554v3.9496c1.132-2.7062 2.96-4.4616 6.251-4.3153v5.8123h-0.292z" fill="#181818"/>
<path d="m33.543 134.18c-2.9598 0-4.7883-1.35-6.1048-2.925v8.406h-5.5588v-25.443h5.5588v2.813c1.3506-1.828 3.2182-3.179 6.1048-3.179 4.5689 0 8.9184 3.584 8.9184 10.128v0.073c0 6.543-4.2763 10.127-8.9184 10.127zm3.3597-10.2c0-3.253-2.1943-5.413-4.7884-5.413-2.594 0-4.7541 2.155-4.7541 5.413v0.073c0 3.252 2.1552 5.412 4.7541 5.412 2.599 0 4.7884-2.121 4.7884-5.412v-0.073z" fill="#181818"/>
<path d="m55.329 119.67c-3.6912 0-5.9586 2.228-5.9586 6.909v7.236h-5.5588v-19.592h5.5588v3.95c1.1312-2.706 2.9598-4.462 6.2511-4.315v5.812h-0.2925z" fill="#181818"/>
<path d="m65.418 134.26c-6.0659 0-10.566-4.496-10.566-10.127v-0.074c0-5.627 4.5347-10.2 10.64-10.2 6.0659 0 10.566 4.495 10.566 10.127v0.073c-0.0049 5.632-4.5348 10.201-10.64 10.201zm5.154-10.201c0-2.886-2.0821-5.407-5.154-5.407-3.1792 0-5.0809 2.448-5.0809 5.334v0.073c0 2.887 2.0821 5.413 5.154 5.413 3.1792 0 5.0809-2.448 5.0809-5.339v-0.074z" fill="#181818"/>
<path d="m86.107 139.74c-3.1792 0-6.178-0.731-8.6648-2.048l1.9017-4.169c2.0089 1.131 4.0227 1.789 6.6168 1.789 3.8034 0 5.5929-1.828 5.5929-5.339v-0.951c-1.6433 1.975-3.4376 3.18-6.3974 3.18-4.5689 0-8.699-3.326-8.699-9.138v-0.073c0-5.847 4.2032-9.138 8.699-9.138 3.0329 0 4.8273 1.277 6.3242 2.925v-2.559h5.5539v15.169c0 7.392-3.6522 10.352-10.927 10.352zm5.4466-16.74c0-2.667-2.0821-4.534-4.7883-4.534-2.7063 0-4.7542 1.862-4.7542 4.534v0.073c0 2.707 2.0479 4.535 4.7542 4.535 2.7062 0 4.7883-1.862 4.7883-4.535v-0.073z" fill="#181818"/>
<path d="m110.78 119.67c-3.691 0-5.959 2.228-5.959 6.909v7.236h-5.5535v-19.592h5.5535v3.95c1.132-2.706 2.96-4.462 6.251-4.315v5.812h-0.292z" fill="#181818"/>
<path d="m122.36 133.82v-2.121c-1.35 1.497-3.218 2.487-5.919 2.487-3.691 0-6.724-2.121-6.724-5.993v-0.073c0-4.276 3.252-6.251 7.894-6.251 1.975 0 3.399 0.327 4.788 0.805v-0.327c0-2.302-1.423-3.584-4.203-3.584-2.121 0-3.618 0.4-5.407 1.058l-1.39-4.242c2.155-0.951 4.276-1.57 7.602-1.57 6.066 0 8.738 3.145 8.738 8.445v11.366h-5.379zm0.113-7.899c-0.951-0.439-2.195-0.731-3.545-0.731-2.375 0-3.838 0.951-3.838 2.706v0.073c0 1.497 1.244 2.375 3.033 2.375 2.594 0 4.35-1.424 4.35-3.438v-0.985z" fill="#181818"/>
<path d="m154.13 133.82v-10.932c0-2.633-1.17-3.984-3.252-3.984s-3.365 1.351-3.365 3.984v10.932h-5.554v-10.932c0-2.633-1.17-3.984-3.252-3.984s-3.364 1.351-3.364 3.984v10.932h-5.554v-19.592h5.554v2.78c1.277-1.644 2.959-3.146 5.773-3.146 2.56 0 4.496 1.132 5.52 3.107 1.716-2.009 3.764-3.107 6.431-3.107 4.13 0 6.617 2.487 6.617 7.202v12.756h-5.554z" fill="#181818"/>
<path d="m151.44 81.143c6.775 0 12.268-5.4927 12.268-12.268 0-6.7756-5.493-12.268-12.268-12.268-6.776 0-12.269 5.4927-12.269 12.268 0 6.7755 5.493 12.268 12.269 12.268z" fill="#EA3546"/>
</svg>

<svg width="194" height="194" viewBox="0 0 194 194" fill="none" xmlns="http://www.w3.org/2000/svg">
<path d="M97 194C150.572 194 194 150.572 194 97C194 43.4284 150.572 0 97 0C43.4284 0 0 43.4284 0 97C0 150.572 43.4284 194 97 194Z" fill="white"/>
<path d="M46.2253 81.1576V70.2254C46.2253 67.5923 45.0551 66.2416 42.973 66.2416C40.8909 66.2416 39.6085 67.5923 39.6085 70.2254V81.1576H34.0497V70.2254C34.0497 67.5923 32.8795 66.2416 30.7974 66.2416C28.7153 66.2416 27.4329 67.5923 27.4329 70.2254V81.1576H21.8741V61.5655H27.4329V64.3448C28.7104 62.7016 30.3927 61.1998 33.2062 61.1998C35.7661 61.1998 37.7019 62.331 38.7259 64.3058C40.4423 62.2969 42.4902 61.1998 45.1575 61.1998C49.2875 61.1998 51.7743 63.6866 51.7743 68.4017V81.1576H46.2253Z" fill="#181818"/>
<path d="M65.3445 81.1576V79.0365C63.9938 80.5335 62.1263 81.5233 59.4249 81.5233C55.7337 81.5233 52.7008 79.4022 52.7008 75.5306V75.4575C52.7008 71.1811 55.9532 69.2063 60.5952 69.2063C62.57 69.2063 63.9938 69.533 65.3835 70.0109V69.6842C65.3835 67.3827 63.9597 66.1003 61.1803 66.1003C59.0592 66.1003 57.5623 66.5001 55.7727 67.1584L54.3831 62.9162C56.5383 61.9653 58.6594 61.3461 61.9849 61.3461C68.0507 61.3461 70.7228 64.4911 70.7228 69.7915V81.1576H65.3445ZM65.4518 73.2584C64.5009 72.8195 63.2575 72.5269 61.9069 72.5269C59.5322 72.5269 58.0694 73.4778 58.0694 75.2332V75.3063C58.0694 76.8033 59.3128 77.681 61.1023 77.681C63.6964 77.681 65.4518 76.2571 65.4518 74.2433V73.2584Z" fill="#181818"/>
<path d="M84.2783 67.0072C80.5871 67.0072 78.3197 69.2356 78.3197 73.9166V81.1527H72.761V61.5606H78.3197V65.5102C79.451 62.804 81.2795 61.0486 84.5709 61.1949V67.0072H84.2783Z" fill="#181818"/>
<path d="M97.9119 81.1576L92.792 73.151L90.8562 75.199V81.1576H85.2974V54.4708H90.8562V68.6894L97.3609 61.5606H104.012L96.5563 69.2746L104.27 81.1527H97.9119V81.1576Z" fill="#181818"/>
<path d="M121.493 73.2973H107.859C108.405 75.8183 110.161 77.1348 112.647 77.1348C114.51 77.1348 115.866 76.5497 117.402 75.1259L120.581 77.9394C118.752 80.2068 116.119 81.5964 112.574 81.5964C106.689 81.5964 102.339 77.4664 102.339 71.4688V71.3957C102.339 65.8028 106.323 61.1949 112.028 61.1949C118.572 61.1949 121.571 66.2758 121.571 71.8345V71.9077C121.566 72.4586 121.527 72.7853 121.493 73.2973ZM112.023 65.6565C109.722 65.6565 108.22 67.2997 107.781 69.8256H116.153C115.827 67.3388 114.364 65.6565 112.023 65.6565Z" fill="#181818"/>
<path d="M129.567 81.4843C126.169 81.4843 123.862 80.1336 123.862 75.5989V66.3148H121.522V61.5606H123.862V56.5529H129.421V61.5606H134.029V66.3148H129.421V74.687C129.421 75.9646 129.967 76.5887 131.211 76.5887C132.235 76.5887 133.146 76.3352 133.951 75.8963V80.3579C132.786 81.0455 131.435 81.4843 129.567 81.4843Z" fill="#181818"/>
<path d="M21.9911 88.6618V83.7272H27.8376V88.6618H21.9911ZM22.1374 110.414V90.8219H27.6962V110.414H22.1374Z" fill="#181818"/>
<path d="M42.5682 110.414V99.4818C42.5682 96.8487 41.3248 95.4981 39.2037 95.4981C37.0826 95.4981 35.732 96.8487 35.732 99.4818V110.414H30.1732V90.8219H35.732V93.6013C37.0095 91.958 38.6576 90.4562 41.4711 90.4562C45.6743 90.4562 48.1221 93.2355 48.1221 97.7313V110.414H42.5682Z" fill="#181818"/>
<path d="M58.6545 88.1498C57.3769 88.1498 56.6455 88.8081 56.6455 90.2709V91.0364H61.1413V95.5712H56.7186V110.414H51.1599V95.5712H48.8584V91.0023H51.1599V89.7589C51.1599 85.4436 53.3151 83.4736 57.2258 83.4736C58.9812 83.4736 60.1514 83.6931 61.1754 84.0198V88.6277C60.3708 88.3351 59.6053 88.1498 58.6545 88.1498Z" fill="#181818"/>
<path d="M61.6874 110.414V83.7272H67.2461V110.414H61.6874Z" fill="#181818"/>
<path d="M81.9719 110.414V107.635C80.6944 109.278 79.0463 110.78 76.2328 110.78C72.0296 110.78 69.5818 108 69.5818 103.505V90.8219H75.1405V101.754C75.1405 104.387 76.3839 105.738 78.505 105.738C80.6261 105.738 81.9768 104.387 81.9768 101.754V90.8219H87.5355V110.414H81.9719Z" fill="#181818"/>
<path d="M107.961 102.554H94.3279C94.874 105.075 96.6294 106.391 99.1162 106.391C100.979 106.391 102.334 105.806 103.87 104.382L107.05 107.196C105.221 109.463 102.588 110.853 99.0431 110.853C93.1576 110.853 88.8082 106.723 88.8082 100.725V100.652C88.8082 95.0593 92.7919 90.4514 98.497 90.4514C105.041 90.4514 108.039 95.5322 108.039 101.091V101.164C108.035 101.715 108 102.042 107.961 102.554ZM98.497 94.913C96.1954 94.913 94.6936 96.5562 94.2548 99.082H102.627C102.295 96.5952 100.837 94.913 98.497 94.913Z" fill="#181818"/>
<path d="M121.819 110.414V99.4818C121.819 96.8487 120.576 95.4981 118.455 95.4981C116.334 95.4981 114.983 96.8487 114.983 99.4818V110.414H109.429V90.8219H114.983V93.6013C116.261 91.958 117.909 90.4562 120.722 90.4562C124.925 90.4562 127.373 93.2355 127.373 97.7313V110.414H121.819Z" fill="#181818"/>
<path d="M138.705 110.853C132.82 110.853 128.504 106.318 128.504 100.725V100.652C128.504 95.0593 132.781 90.4514 138.778 90.4514C142.469 90.4514 144.771 91.6948 146.599 93.7427L143.201 97.3998C141.957 96.0832 140.714 95.2445 138.739 95.2445C135.96 95.2445 133.985 97.6923 133.985 100.579V100.652C133.985 103.651 135.921 106.065 138.959 106.065C140.821 106.065 142.104 105.26 143.454 103.982L146.707 107.274C144.81 109.351 142.616 110.853 138.705 110.853Z" fill="#181818"/>
<path d="M165.246 102.554H151.612C152.158 105.075 153.914 106.391 156.4 106.391C158.263 106.391 159.619 105.806 161.155 104.382L164.334 107.196C162.505 109.463 159.872 110.853 156.327 110.853C150.442 110.853 146.092 106.723 146.092 100.725V100.652C146.092 95.0593 150.076 90.4514 155.781 90.4514C162.325 90.4514 165.324 95.5322 165.324 101.091V101.164C165.319 101.715 165.28 102.042 165.246 102.554ZM155.776 94.913C153.475 94.913 151.973 96.5562 151.534 99.082H159.906C159.58 96.5952 158.117 94.913 155.776 94.913Z" fill="#181818"/>
<path d="M178.221 96.2637C174.53 96.2637 172.262 98.492 172.262 103.173V110.409H166.708V90.8171H172.262V94.7667C173.394 92.0605 175.222 90.3051 178.513 90.4514V96.2637H178.221Z" fill="#181818"/>
<path d="M33.5426 134.184C30.5828 134.184 28.7543 132.834 27.4378 131.259V139.665H21.879V114.222H27.4378V117.035C28.7884 115.207 30.656 113.856 33.5426 113.856C38.1115 113.856 42.461 117.44 42.461 123.984V124.057C42.461 130.6 38.1847 134.184 33.5426 134.184ZM36.9023 123.984C36.9023 120.731 34.708 118.571 32.1139 118.571C29.5199 118.571 27.3598 120.726 27.3598 123.984V124.057C27.3598 127.309 29.515 129.469 32.1139 129.469C34.7129 129.469 36.9023 127.348 36.9023 124.057V123.984Z" fill="#181818"/>
<path d="M55.329 119.669C51.6378 119.669 49.3704 121.897 49.3704 126.578V133.814H43.8116V114.222H49.3704V118.172C50.5016 115.466 52.3302 113.71 55.6215 113.857V119.669H55.329Z" fill="#181818"/>
<path d="M65.4176 134.258C59.3517 134.258 54.8511 129.762 54.8511 124.131V124.057C54.8511 118.43 59.3858 113.857 65.4907 113.857C71.5566 113.857 76.0572 118.352 76.0572 123.984V124.057C76.0523 129.689 71.5224 134.258 65.4176 134.258ZM70.5716 124.057C70.5716 121.171 68.4895 118.65 65.4176 118.65C62.2384 118.65 60.3367 121.098 60.3367 123.984V124.057C60.3367 126.944 62.4188 129.47 65.4907 129.47C68.6699 129.47 70.5716 127.022 70.5716 124.131V124.057Z" fill="#181818"/>
<path d="M86.1068 139.739C82.9276 139.739 79.9288 139.008 77.442 137.691L79.3437 133.522C81.3526 134.653 83.3664 135.311 85.9605 135.311C89.7639 135.311 91.5534 133.483 91.5534 129.972V129.021C89.9101 130.996 88.1158 132.201 85.156 132.201C80.5871 132.201 76.457 128.875 76.457 123.063V122.99C76.457 117.143 80.6602 113.852 85.156 113.852C88.1889 113.852 89.9833 115.129 91.4802 116.777V114.218H97.0341V129.387C97.0341 136.779 93.3819 139.739 86.1068 139.739ZM91.5534 122.999C91.5534 120.332 89.4713 118.465 86.7651 118.465C84.0588 118.465 82.0109 120.327 82.0109 122.999V123.072C82.0109 125.779 84.0588 127.607 86.7651 127.607C89.4713 127.607 91.5534 125.745 91.5534 123.072V122.999Z" fill="#181818"/>
<path d="M110.78 119.669C107.089 119.669 104.821 121.897 104.821 126.578V133.814H99.2675V114.222H104.821V118.172C105.953 115.466 107.781 113.71 111.072 113.857V119.669H110.78Z" fill="#181818"/>
<path d="M122.365 133.819V131.698C121.015 133.195 119.147 134.185 116.446 134.185C112.755 134.185 109.722 132.064 109.722 128.192V128.119C109.722 123.843 112.974 121.868 117.616 121.868C119.591 121.868 121.015 122.195 122.404 122.673V122.346C122.404 120.044 120.981 118.762 118.201 118.762C116.08 118.762 114.583 119.162 112.794 119.82L111.404 115.578C113.559 114.627 115.68 114.008 119.006 114.008C125.072 114.008 127.744 117.153 127.744 122.453V133.819H122.365ZM122.478 125.92C121.527 125.481 120.283 125.189 118.933 125.189C116.558 125.189 115.095 126.14 115.095 127.895V127.968C115.095 129.465 116.339 130.343 118.128 130.343C120.722 130.343 122.478 128.919 122.478 126.905V125.92Z" fill="#181818"/>
<path d="M154.133 133.819V122.887C154.133 120.254 152.963 118.903 150.881 118.903C148.799 118.903 147.516 120.254 147.516 122.887V133.819H141.962V122.887C141.962 120.254 140.792 118.903 138.71 118.903C136.628 118.903 135.346 120.254 135.346 122.887V133.819H129.792V114.227H135.346V117.007C136.623 115.363 138.305 113.861 141.119 113.861C143.679 113.861 145.615 114.993 146.639 116.968C148.355 114.959 150.403 113.861 153.07 113.861C157.2 113.861 159.687 116.348 159.687 121.063V133.819H154.133Z" fill="#181818"/>
<path d="M151.437 81.1429C158.212 81.1429 163.705 75.6502 163.705 68.8747C163.705 62.0991 158.212 56.6064 151.437 56.6064C144.661 56.6064 139.168 62.0991 139.168 68.8747C139.168 75.6502 144.661 81.1429 151.437 81.1429Z" fill="#EA3546"/>
</svg>
